assets/icons/email.svg

<svg xmlns="http://www.w3.org/2000/svg" fill="none" viewBox="0 0 18 17">
  <g fill="currentColor" clip-path="url(#a)">
    <path d="M2.93282 4.34966 13.854 1.42419c.7721-.20697 1.7683-.22091 2.2198.54799.1452.24619.2122.53062.1923.81572a1.41197 1.41197 0 0 1-.3038.78106l-4.8086 6.14048c-.2037.26166-.4858.43966-.7935.52116a1.49253 1.49253 0 0 1-.94803-.0536L2.17893 7.26011a1.41228 1.41228 0 0 1-.89544-1.32547c.00751-.89329.87721-1.37801 1.64933-1.58498Z"/>
    <path d="M8.7247 11.7717a3.2815 3.2815 0 0 0 2.0804.1222 3.28267 3.28267 0 0 0 1.7427-1.1474c1.6568-2.11689 4.3528-5.689 4.3528-5.689l1.2622 4.71313c.4546 1.69757-.4043 2.96837-2.1019 3.42417l-9.15604 2.4514c-1.69758.4547-3.07774-.2166-3.53136-1.9131L2.11023 9.01996s4.1201 1.74694 6.61447 2.75174Z"/>
  </g>
  <defs>
    <clipPath id="a">
      <path fill="currentColor" d="M.85547 0h17v17h-17z"/>
    </clipPath>
  </defs>
</svg>

<svg width="18" height="17" viewBox="0 0 18 17" fill="none" xmlns="http://www.w3.org/2000/svg">
<g clip-path="url(#clip0_6406_98)">
<path d="M2.93282 4.34966L13.854 1.42419C14.6261 1.21722 15.6223 1.20328 16.0738 1.97218C16.219 2.21837 16.286 2.5028 16.2661 2.7879C16.2462 3.07299 16.1403 3.34534 15.9623 3.56896L11.1537 9.70944C10.95 9.9711 10.6679 10.1491 10.3602 10.2306C10.0467 10.3164 9.71391 10.2976 9.41217 10.177L2.17893 7.26011C1.91317 7.15561 1.68534 6.973 1.52548 6.73637C1.36562 6.49973 1.28125 6.2202 1.28349 5.93464C1.291 5.04135 2.1607 4.55663 2.93282 4.34966Z" fill="currentColor"/>
<path d="M8.7247 11.7717C9.38647 12.0374 10.1168 12.0803 10.8051 11.8939C11.4953 11.7112 12.1071 11.3083 12.5478 10.7465C14.2046 8.62961 16.9006 5.0575 16.9006 5.0575L18.1628 9.77063C18.6174 11.4682 17.7585 12.739 16.0609 13.1948L6.90486 15.6462C5.20728 16.1009 3.82712 15.4296 3.3735 13.7331L2.11023 9.01996C2.11023 9.01996 6.23033 10.7669 8.7247 11.7717Z" fill="currentColor"/>
</g>
<defs>
<clipPath id="clip0_6406_98">
<rect width="17" height="17" fill="white" transform="translate(0.855469)"/>
</clipPath>
</defs>
</svg>
